packages/kaspersky-hexa-ui-icons/src/iconsSVGs/24/WeChatColor.svg

<svg width="24" height="24" viewBox="0 0 24 24" fill="none" xmlns="http://www.w3.org/2000/svg">
<path d="M21 18.3C21 19.7912 19.7912 21 18.3 21H5.7C4.20876 21 3 19.7912 3 18.3V5.7C3 4.20882 4.20882 3 5.7 3H18.3C19.7912 3 21 4.20882 21 5.7V18.3Z" fill="#2DC100"/>
<path fill-rule="evenodd" clip-rule="evenodd" d="M12.4377 11.0298C14.4982 9.67997 17.5202 10.1304 18.9729 12.0035C20.2403 13.6378 20.0916 15.8073 18.5442 17.1802C18.0964 17.5775 17.9347 17.9045 18.2219 18.4283C18.275 18.525 18.281 18.6479 18.3118 18.7701C17.8518 18.5652 17.4299 18.2574 16.9807 18.2105C16.5333 18.1638 16.063 18.4223 15.595 18.4703C14.1687 18.6162 12.8908 18.218 11.8372 17.2437C9.83339 15.3903 10.1194 12.5487 12.4377 11.0298ZM13.0793 12.6177C12.7758 12.6164 12.5219 12.8766 12.5325 13.1783C12.5426 13.4663 12.7849 13.6993 13.0754 13.6997C13.3683 13.7001 13.6093 13.4705 13.6204 13.1812C13.6318 12.8751 13.3859 12.619 13.0793 12.6177ZM16.4514 12.6187C16.1673 12.6167 15.9259 12.8492 15.9143 13.1363C15.902 13.4433 16.1408 13.6951 16.4446 13.6958C16.7383 13.6967 16.97 13.4745 16.9807 13.1822C16.992 12.8746 16.7537 12.6209 16.4514 12.6187Z" fill="white"/>
<path fill-rule="evenodd" clip-rule="evenodd" d="M7.81176 5.56401C10.1298 4.8069 12.7352 5.57908 14.1448 7.41948C14.6537 8.08412 14.9656 8.83025 15.0481 9.71245C13.5953 9.78835 12.3315 10.2292 11.3059 11.2242C10.2699 12.2293 9.79681 13.4611 9.92602 14.9878C9.35845 14.9175 8.84145 14.8402 8.32153 14.7964C8.14194 14.7813 7.92876 14.8034 7.77661 14.8892C7.27158 15.1742 6.78695 15.4954 6.21313 15.854C6.31837 15.378 6.38649 14.9611 6.50708 14.5601C6.5958 14.2653 6.55495 14.1007 6.28344 13.9087C4.53957 12.6775 3.80377 10.835 4.35376 8.93803C4.86274 7.18303 6.1134 6.11883 7.81176 5.56401ZM11.8499 8.4517C11.4916 8.45857 11.1892 8.76365 11.1956 9.11186C11.2022 9.47277 11.499 9.75488 11.8674 9.75053C12.2369 9.74609 12.5173 9.46093 12.5139 9.09233C12.5109 8.73041 12.2146 8.44504 11.8499 8.4517ZM7.71704 8.4517C7.35159 8.44119 7.05096 8.72045 7.04028 9.08061C7.02949 9.4457 7.30883 9.73814 7.677 9.7476C8.0421 9.75684 8.34807 9.47719 8.36157 9.12163C8.37495 8.77465 8.07416 8.46214 7.71704 8.4517Z" fill="white"/>
</svg>

<svg xmlns="http://www.w3.org/2000/svg" width="24" height="24" fill="none" viewBox="0 0 24 24"><path fill="#2dc100" d="M21 18.3c0 1.4912-1.2088 2.7-2.7 2.7H5.7C4.2088 21 3 19.7912 3 18.3V5.7C3 4.2088 4.2088 3 5.7 3h12.6C19.7912 3 21 4.2088 21 5.7z"/><path fill="#fff" fill-rule="evenodd" d="M12.4377 11.0298c2.0605-1.3498 5.0825-.8994 6.5352.9737 1.2674 1.6343 1.1187 3.8038-.4287 5.1767-.4478.3973-.6095.7243-.3223 1.2481.0531.0967.0591.2196.0899.3418-.46-.2049-.8819-.5127-1.3311-.5596-.4474-.0467-.9177.2118-1.3857.2598-1.4263.1459-2.7042-.2523-3.7578-1.2266-2.0038-1.8534-1.7178-4.695.6005-6.2139m.6416 1.5879c-.3035-.0013-.5574.2589-.5468.5606.0101.288.2524.521.5429.5214.2929.0004.5339-.2292.545-.5185.0114-.3061-.2345-.5622-.5411-.5635m3.3721.001c-.2841-.002-.5255.2305-.5371.5176-.0123.307.2265.5588.5303.5595.2937.0009.5254-.2213.5361-.5136.0113-.3076-.227-.5613-.5293-.5635" clip-rule="evenodd"/><path fill="#fff" fill-rule="evenodd" d="M7.8118 5.564c2.318-.7571 4.9234.015 6.333 1.8555.5089.6646.8208 1.4107.9033 2.293-1.4528.0758-2.7166.5167-3.7422 1.5117-1.036 1.0051-1.509 2.2369-1.3799 3.7636-.5676-.0703-1.0846-.1476-1.6045-.1914-.1796-.0151-.3927.007-.5449.0928-.505.285-.9897.6062-1.5635.9648.1053-.476.1734-.8929.294-1.2939.0887-.2948.0478-.4594-.2237-.6514-1.7438-1.2312-2.4796-3.0737-1.9296-4.9707.509-1.755 1.7596-2.8192 3.458-3.374m4.0381 2.8877c-.3583.0069-.6607.312-.6543.6602.0066.3609.3034.643.6718.6386.3695-.0044.6499-.2896.6465-.6582-.003-.3619-.2993-.6473-.664-.6406m-4.1329 0c-.3654-.0105-.666.2687-.6767.629-.0108.365.2685.6574.6367.6669.3651.0092.671-.2704.6846-.626.0134-.347-.2874-.6595-.6446-.6699" clip-rule="evenodd"/></svg>
